!!!OTL: GESELLEN STIMMET MIT MIR EIN
!!!ARE: Europa, Mitteleuropa, Deutschland, Ober - Rhein
!!!SCT: E1622
!!!YEM: Copyright 1995, estate of Helmut Schaffrath.
**kern
*ICvox
*Ivox
*M2/4
*k[f#]
*G:
{8d
=1
8g
8g
8a
8a
=2
8b
8b
8g}
{8a
=3
8b
8b
8cc
8cc
=4
8dd
8dd
8b}
{8dd
=5
8ee
8dd
8cc
8b
=6
4a
8r}
{8b
=7
8dd
8dd
8ee
8ee
=8
8cc
8cc
8a}
{8b
=9
8cc
8cc
8dd
8dd
=10
8b
8b
8g}
{8a
=11
4b
4a
=12
8g
8ee
8dd}
{8cc
=13
4b
4a
=14
4g
8r}
{8b
=15
8dd
8dd
8ee
8ee
=16
8cc
8cc
8a}
{8b
=17
8cc
8cc
8dd
8dd
=18
8b
8b
8g}
{8a
=19
4b
4a
=20
8g
8ee
8dd}
{8cc
=21
4b
4a
=22
4g
8r}
==
!!!AGN: Staende -, Handwerker -, Gesellen - Lied, Trink - Lied
!!!ONB: ESAC (Essen Associative Code) Database: ERK3
!!!AMT: simple duple
!!!AIN: vox
!!!EED: Helmut Schaffrath
!!!EEV: 1.0
*-
